X:1
T:Title
%%score { ( 1 4 ) | ( 2 3 ) }
L:1/8
M:6/8
K:Ab
V:1 treble nm="Grand Piano"
V:4 treble 
V:2 bass 
V:3 bass 
V:1
 z3 z2[Q:1/4=100] [CE] | [CE]2 [CE] [CE]2 [CE] | F2 A E2 [CE] | [CA]2 [EA] [=DA]2 [Dc] | %4
[M:5/8] [EB]-[EB]- [EB]3 |[M:1/8] [DE] |[M:3/4] [CE]2 [CE] [CE]2 [CE] | [DF]2 [Fd] [Ec]2 [FB] | %8
 A2 A B2 G |[M:5/8] [CEA]-[CEA]- [CEA]3 |[M:1/8] [CE] |[M:3/4] c2 cB- B/A/B | A4- AA | %13
 B2 BB- B/A/B |[M:5/8] c-c- c3 |[M:1/8] e |[M:3/4] [Ge]2 [GB] [GB]2 [Gf] | z2 z B z2 | %18
 c2 AB- B/A/[B,EG] |[M:5/8] [A,CEA]-[A,CEA]- [A,CEA]3 |] %20
V:2
 z3 z2 [A,,A,] | [A,,A,]2 [A,,A,] [A,,A,]2 [A,,A,] | [D,A,D]2 [F,A,D] [A,C]2 [A,,A,] | %3
 [C,A,]2 [C,A,] [B,,B,]2 [B,,B,] |[M:5/8] [E,G,]-[E,G,]- [E,G,]3 |[M:1/8] [E,G,] | %6
[M:3/4] [A,,A,]2 [A,,A,] [A,,A,]2 [A,,A,] | [D,A,]2 [B,,B,] [C,A,]2 [D,D] | %8
 [E,CE]2 [E,CE] [E,DE]2 [E,B,E] |[M:5/8] [A,,A,]-[A,,A,]- [A,,A,]3 |[M:1/8] [A,,A,] | %11
[M:3/4] [A,E]2 [A,E][E,DE]- [E,DE]/[E,CE]/[E,DE] | [A,CE]4- [A,CE][A,CE] | z2 z .D3 | %14
[M:5/8][K:treble] [A,E]-[A,E]- [A,E]3 |[M:1/8] [A,CA] |[M:3/4][K:bass] [E,B,]2 [E,E] [E,E]2 [E,D] | %17
 [A,C]2 .A,2 AD, | [E,A,E]2 [E,CE]D- D/C/E, |[M:5/8] A,,-A,,- A,,3 |] %20
V:3
 x6 | x6 | x6 | x6 |[M:5/8] x5 |[M:1/8] x |[M:3/4] x6 | x6 | x6 |[M:5/8] x5 |[M:1/8] x | %11
[M:3/4] x6 | x6 | [E,DE]2 [E,DE][E,E]- [E,E]/-[E,CE]/[E,G,E] |[M:5/8][K:treble] x5 |[M:1/8] x | %16
[M:3/4][K:bass] x6 | z2 z .D,3 | z2 z .[E,E]3 |[M:5/8] x5 |] %20
V:4
 x6 | x6 | x6 | x6 |[M:5/8] x5 |[M:1/8] x |[M:3/4] x6 | x6 | x6 |[M:5/8] x5 |[M:1/8] x | %11
[M:3/4] x6 | x6 | x6 |[M:5/8] x5 |[M:1/8] x |[M:3/4] x6 | [Ae]2 [EAc] [DF]2 [DFB] | x6 | %19
[M:5/8] x5 |] %20

